dist/img/navburguer.svg

<svg xmlns="http://www.w3.org/2000/svg" viewBox="0 0 24 24" width="96" height="96"><path d="M2 5v2h20V5H2zm0 6v2h20v-2H2zm0 6v2h20v-2H2z"/></svg>

<svg xmlns="http://www.w3.org/2000/svg"  viewBox="0 0 24 24" width="96px" height="96px"><path d="M 2 5 L 2 7 L 22 7 L 22 5 L 2 5 z M 2 11 L 2 13 L 22 13 L 22 11 L 2 11 z M 2 17 L 2 19 L 22 19 L 22 17 L 2 17 z"/></svg>
